X:1
T:White Water (Log Jam Song)
M:2/4
L:1/8
K:C
 z/2 A/2| AE ^CA,| ^CE A,2| EE G E/2E/2| AE ^C| E| A, A/2A/2 GB| AE ^C2|\
 EE G G/2G/2| EE| G2-| G G3| AA E3/2 D/2| ^CA, A,2| G,A, A,A,| G,B, A,2-|\
 A,3||

